X:51
T:The Blue Jig
C:Joel Mabus
M:6/8
K:A minor
|: A3 cBA | cBA a3 | age _edc | d_e=e _edc | \
   A3 cBA | cBA a3 | age cAG | _EDC A,3 :: \
 ^FAB cBA | ^FAB cBA | ^cef gfe | ^cef gfe | \
 ^FAB =cBA | ^FAB cBA | age cAG |  _EDC A,3 :|
